images_elementary_svg/cmd/sc_backgroundcolor.svg

<?xml version="1.0" encoding="UTF-8" standalone="no"?>
<svg
   xmlns:dc="http://purl.org/dc/elements/1.1/"
   xmlns:cc="http://creativecommons.org/ns#"
   xmlns:rdf="http://www.w3.org/1999/02/22-rdf-syntax-ns#"
   xmlns:svg="http://www.w3.org/2000/svg"
   xmlns="http://www.w3.org/2000/svg"
   xmlns:xlink="http://www.w3.org/1999/xlink"
   xmlns:sodipodi="http://sodipodi.sourceforge.net/DTD/sodipodi-0.dtd"
   xmlns:inkscape="http://www.inkscape.org/namespaces/inkscape"
   viewBox="0 0 16 16"
   version="1.1"
   id="svg17"
   sodipodi:docname="sc_backgroundcolor.svg"
   inkscape:version="0.92.3 (unknown)"
   inkscape:export-filename="/home/rizmut/Dokumen/Rizmut/Github/libreoffice-style-elementary/images_elementary/cmd/sc_backgroundcolor.png"
   inkscape:export-xdpi="96"
   inkscape:export-ydpi="96"><metadata
   id="metadata23">
  <rdf:RDF>
    <cc:Work
       rdf:about="">
      <dc:format>image/svg+xml</dc:format>
      <dc:type
         rdf:resource="http://purl.org/dc/dcmitype/StillImage" />
      <dc:title></dc:title>
    </cc:Work>
  </rdf:RDF>
</metadata>
<defs
   id="defs21">
  <linearGradient
     y2="27.652287"
     x2="104.74687"
     y1="27.165281"
     x1="80.82019"
     spreadMethod="reflect"
     gradientTransform="matrix(-0.14720573,-0.24716426,0.25496837,-0.14270033,18.297594,35.893554)"
     gradientUnits="userSpaceOnUse"
     id="linearGradient15986"
     xlink:href="#linearGradient14411" />
  <linearGradient
     id="linearGradient14411">
    <stop
       style="stop-color:#abacae;stop-opacity:1"
       offset="0"
       id="stop14413" />
    <stop
       id="stop14415"
       offset="0.11148844"
       style="stop-color:#7e8087;stop-opacity:1" />
    <stop
       style="stop-color:#fafafa;stop-opacity:1"
       offset="1"
       id="stop14417" />
  </linearGradient>
  <linearGradient
     gradientTransform="matrix(0.6611976,0,0,0.6611976,0.5085153,0.1063129)"
     gradientUnits="userSpaceOnUse"
     y2="15.044191"
     x2="16.015562"
     y1="1.8942976"
     x1="16.015562"
     id="linearGradient954"
     xlink:href="#linearGradient964" />
  <linearGradient
     id="linearGradient964">
    <stop
       offset="0"
       style="stop-color:#ffffff;stop-opacity:1"
       id="stop956" />
    <stop
       offset="0.40498418"
       style="stop-color:#ffffff;stop-opacity:0.23529412"
       id="stop958" />
    <stop
       offset="0.74407381"
       style="stop-color:#ffffff;stop-opacity:0.15686275"
       id="stop960" />
    <stop
       offset="1"
       style="stop-color:#ffffff;stop-opacity:0.39215687"
       id="stop962" />
  </linearGradient>
  <radialGradient
     gradientTransform="matrix(0.33526741,0,0,0.33296191,-4.1423312,2.7541075)"
     r="4.3006992"
     fy="21.21833"
     fx="24.660349"
     cy="21.21833"
     cx="24.660349"
     gradientUnits="userSpaceOnUse"
     id="radialGradient15988"
     xlink:href="#linearGradient8059" />
  <linearGradient
     id="linearGradient8059">
    <stop
       style="stop-color:#ffffff;stop-opacity:1.0000000;"
       offset="0.0000000"
       id="stop8061" />
    <stop
       style="stop-color:#9d9d9d;stop-opacity:1"
       offset="1.0000000"
       id="stop8063" />
  </linearGradient>
  <linearGradient
     y2="240.80917"
     x2="195.83525"
     y1="235.83804"
     x1="194.15193"
     gradientTransform="matrix(0.65995383,-0.04053656,0.04053656,0.65995383,-134.65119,-142.36227)"
     gradientUnits="userSpaceOnUse"
     id="linearGradient15993"
     xlink:href="#linearGradient17889" />
  <linearGradient
     id="linearGradient17889">
    <stop
       id="stop17891"
       offset="0"
       style="stop-color:#cfd1d3;stop-opacity:1;" />
    <stop
       id="stop17893"
       offset="1"
       style="stop-color:#cfd1d3;stop-opacity:0;" />
  </linearGradient>
</defs>
<sodipodi:namedview
   pagecolor="#ffffff"
   bordercolor="#666666"
   borderopacity="1"
   objecttolerance="10"
   gridtolerance="10"
   guidetolerance="10"
   inkscape:pageopacity="0"
   inkscape:pageshadow="2"
   inkscape:window-width="1366"
   inkscape:window-height="706"
   id="namedview19"
   showgrid="true"
   inkscape:snap-global="false"
   inkscape:zoom="14.75"
   inkscape:cx="4.1755933"
   inkscape:cy="3.1103656"
   inkscape:window-x="0"
   inkscape:window-y="0"
   inkscape:window-maximized="1"
   inkscape:current-layer="svg17">
  <inkscape:grid
     type="xygrid"
     id="grid830" />
</sodipodi:namedview>
<linearGradient
   id="a"
   gradientTransform="matrix(0.28063143,-0.15962988,0.16202261,0.27648769,-24.778133,17.671799)"
   gradientUnits="userSpaceOnUse"
   x1="99.879044"
   x2="110.0342"
   y1=".175914"
   y2="43.479088">
  <stop
     offset="0"
     stop-color="#f4f4f4"
     id="stop2" />
  <stop
     offset="1"
     stop-color="#dbdbdb"
     id="stop4" />
</linearGradient>


     /&gt;
 <path
   d="m -11.982732,6.8066774 3.4870187,6.0064586 c 0.4957134,1.060718 0.633246,0.743639 1.2288482,0.403931 l 5.0622632,-2.91167 c 0.592806,-0.338112 0.956741,-0.431543 0.348296,-1.293427 l -3.558249,-6.0382114 z"
   id="path15"
   inkscape:connector-curvature="0"
   style="fill:none;stroke:#ffffff;stroke-width:0.94780099" />
<path
   inkscape:connector-curvature="0"
   style="opacity:1;fill:#555753;fill-opacity:1;stroke:#555761;stroke-width:1;stroke-miterlimit:4;stroke-dasharray:none;stroke-opacity:1"
   d="M 3.2474735,4.6590486 C 2.7925695,4.8421408 2.172829,6.5395408 3.8012926,9.2864464 5.338577,11.879703 6.9133513,12.415974 7.3334102,12.158663 7.7350216,11.912657 7.8947669,10.095964 6.4666462,7.8510129 5.3103439,6.0333147 3.7023774,4.4759563 3.2474735,4.6590486 Z"
   id="path16981" />
<path
   inkscape:connector-curvature="0"
   style="opacity:1;fill:url(#linearGradient15986);fill-opacity:1;fill-rule:evenodd;stroke:#555761;stroke-width:1;stroke-linecap:butt;stroke-linejoin:round;stroke-miterlimit:4;stroke-dasharray:none;stroke-opacity:1"
   d="M 7.3601292,12.110402 14.669946,7.9334841 C 16.825609,5.3880321 13.222453,0.04663324 10.526935,0.53152912 L 3.1997813,4.6234497 c 2.721648,1.3262566 4.2689496,4.7152314 4.1603479,7.4869523 z"
   id="path16943" />
<path
   inkscape:connector-curvature="0"
   style="opacity:1;fill:none;stroke:url(#linearGradient954);stroke-width:1;stroke-linecap:butt;stroke-linejoin:miter;stroke-miterlimit:4;stroke-dasharray:none;stroke-opacity:1"
   d="M 8.1461741,10.907188 14.249134,7.5287915 C 15.985333,5.4666022 12.775635,0.43285199 10.509526,1.1537227 l -6.118789,3.476782 c 1.7220759,0.9490698 3.5584399,4.0574786 3.7554371,6.2766833 z"
   id="path16947" />
<path
   inkscape:connector-curvature="0"
   style="opacity:1;fill:none;stroke:#555761;stroke-width:1;stroke-linecap:round;stroke-linejoin:miter;stroke-miterlimit:4;stroke-dasharray:none;stroke-opacity:1"
   d="M 8.4608273,4.8233243 V 2.0032395 c 0,-2.0653698 -3.9679523,-2.02348334 -3.9679523,0.064211 v 1.5876449"
   id="path16949" />
<ellipse
   ry="1.265488"
   rx="1.2742505"
   style="opacity:1;fill:url(#radialGradient15988);fill-opacity:1;fill-rule:evenodd;stroke:#555761;stroke-width:1.00002277;stroke-linecap:round;stroke-linejoin:miter;stroke-miterlimit:4;stroke-dasharray:none;stroke-dashoffset:0;stroke-opacity:1"
   id="path16945"
   transform="matrix(0.86839481,-0.49587343,0.50413844,0.86362286,0,0)"
   cx="4.1254807"
   cy="9.8190031" />
<path
   inkscape:connector-curvature="0"
   style="opacity:1;fill:#fcaf3e;fill-opacity:1;fill-rule:evenodd;stroke:#ce5c00;stroke-width:1;stroke-linecap:butt;stroke-linejoin:round;stroke-miterlimit:4;stroke-dasharray:none;stroke-opacity:1"
   d="m 3.9788175,12.835093 c -1.8860199,0 -2.4778975,0.562831 -2.4778975,1.301581 0,0.533877 0.6422741,1.335976 3.4479868,1.335976 h 4.6229548 c 2.3662474,0 4.8398604,-0.40663 4.8398604,-1.331123 0,-0.894462 -2.541941,-1.311274 -4.5796131,-1.316332 l -0.7991564,-0.002 -0.9163141,0.01389 C 6.5614553,12.537805 6.736038,10.974853 6.3282972,9.717315 5.5079428,10.26644 5.4410891,10.969531 5.1002219,11.976145 4.9497597,12.339109 4.3869814,12.843067 3.9788175,12.835093 Z"
   id="path16941" />
<path
   inkscape:connector-curvature="0"
   id="path17109"
   d="M 3.3037282,5.4119344 C 3.1791453,5.4611275 3.0965683,5.5806654 3.0946046,5.7145976 2.9766535,7.3524501 3.8977282,9.0995788 5.0054458,9.8617082 5.154817,9.9668651 5.3611569,9.9310215 5.4663138,9.7816504 5.571464,9.6322726 5.5356205,9.4259393 5.3862493,9.3207824 4.5495699,8.7451372 3.6636246,7.0895844 3.7596305,5.7565506 3.773714,5.6396972 3.7246532,5.5241529 3.6307565,5.4531733 3.5368598,5.3821938 3.4123034,5.3664903 3.3037282,5.4119146 Z"
   style="font-style:normal;font-variant:normal;font-weight:normal;font-stretch:normal;font-size:medium;line-height:normal;font-family:'Bitstream Vera Sans';-inkscape-font-specification:'Bitstream Vera Sans';text-indent:0;text-align:start;text-decoration:none;text-decoration-line:none;letter-spacing:normal;word-spacing:normal;text-transform:none;writing-mode:lr-tb;direction:ltr;text-anchor:start;display:inline;overflow:visible;visibility:visible;opacity:1;fill:url(#linearGradient15993);fill-opacity:1;stroke:none;stroke-width:1;stroke-miterlimit:4;stroke-dasharray:none;marker:none;enable-background:accumulate" />
<circle
   style="display:inline;overflow:visible;visibility:visible;opacity:1;fill:#ffffff;fill-opacity:1;fill-rule:nonzero;stroke:none;stroke-width:0.16701204;marker:none"
   id="path16951"
   transform="rotate(-90)"
   cx="-13.646763"
   cy="2.8055346"
   r="0.62629509" />
</svg>

<svg xmlns="http://www.w3.org/2000/svg" xmlns:xlink="http://www.w3.org/1999/xlink" viewBox="0 0 16 16"><defs><linearGradient y2="27.652" x2="104.747" y1="27.165" x1="80.82" spreadMethod="reflect" gradientTransform="matrix(-.1472 -.24716 .25497 -.1427 18.298 35.894)" gradientUnits="userSpaceOnUse" id="e" xlink:href="#a"/><linearGradient id="a"><stop offset="0" stop-color="#abacae"/><stop offset=".111" stop-color="#7e8087"/><stop offset="1" stop-color="#fafafa"/></linearGradient><linearGradient gradientTransform="matrix(.6612 0 0 .6612 .51 .106)" gradientUnits="userSpaceOnUse" y2="15.044" x2="16.016" y1="1.894" x1="16.016" id="f" xlink:href="#b"/><linearGradient id="b"><stop offset="0" stop-color="#fff"/><stop offset=".405" stop-color="#fff" stop-opacity=".235"/><stop offset=".744" stop-color="#fff" stop-opacity=".157"/><stop offset="1" stop-color="#fff" stop-opacity=".392"/></linearGradient><radialGradient gradientTransform="matrix(.33527 0 0 .33296 -4.142 2.754)" r="4.301" fy="21.218" fx="24.66" cy="21.218" cx="24.66" gradientUnits="userSpaceOnUse" id="g" xlink:href="#c"/><linearGradient id="c"><stop offset="0" stop-color="#fff"/><stop offset="1" stop-color="#9d9d9d"/></linearGradient><linearGradient y2="240.809" x2="195.835" y1="235.838" x1="194.152" gradientTransform="rotate(-3.518 -2387.363 2122.93) scale(.6612)" gradientUnits="userSpaceOnUse" id="h" xlink:href="#d"/><linearGradient id="d"><stop offset="0" stop-color="#cfd1d3"/><stop offset="1" stop-color="#cfd1d3" stop-opacity="0"/></linearGradient></defs>/&gt;<path d="M-11.983 6.807l3.487 6.006c.496 1.06.634.744 1.23.404l5.06-2.912c.594-.338.958-.43.35-1.293l-3.56-6.038z" fill="none" stroke="#fff" stroke-width=".948"/><path d="M3.247 4.66c-.454.182-1.074 1.88.554 4.626 1.54 2.594 3.113 3.13 3.533 2.873.402-.247.562-2.064-.866-4.31-1.157-1.817-2.765-3.374-3.22-3.19z" fill="#555753" stroke="#555761"/><path d="M7.36 12.11l7.31-4.177c2.156-2.545-1.448-7.886-4.143-7.4L3.2 4.622C5.92 5.95 7.47 9.34 7.36 12.11z" fill="url(#e)" fill-rule="evenodd" stroke="#555761" stroke-linejoin="round"/><path d="M8.146 10.907L14.25 7.53c1.735-2.063-1.474-7.097-3.74-6.376L4.39 4.63c1.723.95 3.56 4.058 3.756 6.277z" fill="none" stroke="url(#f)"/><path d="M8.46 4.823v-2.82c0-2.065-3.967-2.023-3.967.064v1.588" fill="none" stroke="#555761" stroke-linecap="round"/><ellipse ry="1.265" rx="1.274" transform="matrix(.8684 -.49587 .50414 .86362 0 0)" cx="4.125" cy="9.819" fill="url(#g)" fill-rule="evenodd" stroke="#555761" stroke-linecap="round"/><path d="M3.98 12.835c-1.887 0-2.48.563-2.48 1.302 0 .534.643 1.336 3.45 1.336H9.57c2.366 0 4.84-.407 4.84-1.33 0-.896-2.542-1.313-4.58-1.318l-.8-.002-.915.014c-1.556-.3-1.38-1.862-1.79-3.12-.82.55-.886 1.253-1.227 2.26-.15.362-.713.866-1.12.858z" fill="#fcaf3e" fill-rule="evenodd" stroke="#ce5c00" stroke-linejoin="round"/><path d="M3.304 5.412c-.125.05-.207.17-.21.303-.117 1.637.804 3.385 1.91 4.147.15.105.357.07.462-.08.105-.15.07-.356-.08-.46C4.55 8.744 3.664 7.09 3.76 5.756c.014-.117-.035-.233-.13-.304-.093-.07-.218-.087-.326-.04z" style="line-height:normal;-inkscape-font-specification:'Bitstream Vera Sans';text-indent:0;text-align:start;text-decoration-line:none;text-transform:none" font-family="Bitstream Vera Sans" overflow="visible" fill="url(#h)"/><circle transform="rotate(-90)" cx="-13.647" cy="2.806" r=".626" overflow="visible" fill="#fff"/></svg>
